X:2489
T:Cancioneiro de Casto Sampedro: N\'umero 352
T:Fandango de Redondela
O:Galicia (Spain)
B:Cancioneiro de Casto Sampedro
Z:Transcrito por Jos\'e J. Presedo
Z:Covertido de Midi a abc por Antonio-Nil
N:http://www.arrakis.es/~jpresedo/
M: 4/4
L: 1/8
Q:1/4=100
K:C % 0 sharps
zC/2D/2 E/2F<GE/2C2D/2E/2|F/2G<AF/2D2D/2C/2 B,/2C/2D|EF AG DG/2F/2 E/2D/2C-|CC/2D/2 E/2F<GE/2C2D/2E/2|
F/2G<AF/2D2D/2C/2 B,/2C/2D|EF AG DG/2F/2 E/2D/2C-|C3E3/2D/2E GF|DE3/2D/2C4F-|
F/2E/2F AG EG3/2F/2D-|D3E3/2D/2E GF|DE3/2D/2C4F-|F/2E/2F AA/2G/2 F/2E/2A/2B/2 A/2F/2D-|
D3E3/2D/2E GG/2F/2|E/2D/2E/2F/2 E/2D/2C2C/2D/2 E/2F/2G-|G/2E/2C2D/2E/2 F/2G<AF/2D-|DD/2C/2 B,/2C/2D EF AG|
DG/2F/2 E/2D/2C2C/2D/2 E/2F/2G-|G/2E/2C2D/2E/2 F/2G<AF/2D-|DD/2C/2 B,/2C/2D EF AG|DG/2F/2 E/2D/2C4E-|
E/2D/2E GF DE3/2D/2C-|C3F3/2E/2F AG|EG3/2F/2D4E-|E/2D/2E GF DE3/2D/2C-|
C3F3/2E/2F AA/2G/2|F/2E/2A/2B/2 A/2F/2D4E-|E/2D/2E GG/2F/2 E/2D/2E/2F/2 E/2D/2C-|CC/2D/2 E/2F<GE/2C2D/2E/2|
F/2G<AF/2D2D/2C/2 B,/2C/2D|EF AG DG/2F/2 E/2D/2C-|C


